!!!!SEGMENT: Ric2019-Misereatur_mei
!!!id: Ric2019
!!!AGN: Motet
!!!voices: 5
!!!COM: Jean Richafort
!!!OTL: Misereatur mei
**kern	**kern	**kern	**kern	**kern
*part5	*part4	*part3	*part2	*part1
*staff5	*staff4	*staff3	*staff2	*staff1
*I"Bassus	*I"Tenor	*I"Altus II	*I"Altus I	*I"Superius
*I'B.	*I'T.	*I'A. II	*I'A. I	*I'S.
*clefF4	*clefGv2	*clefG2	*clefGv2	*clefG2
*k[b-]	*k[b-]	*k[b-]	*k[b-]	*k[b-]
*F:	*F:	*F:	*F:	*F:
*M2/1	*M2/1	*M2/1	*M2/1	*M2/1
*met(C)	*met(C)	*met(C)	*met(C)	*met(C)
=1	=1	=1	=1	=1
!!section: Prima pars: Misereatur mei
!!!OMD: Prima pars: Misereatur mei
0r	0r	0r	0r	1.a
.	.	.	.	2b-y
=2	=2	=2	=2	=2
0r	0r	0r	0r	1cc
.	.	.	.	[1dd
=3	=3	=3	=3	=3
0r	1.d	0r	0r	2dd]
.	.	.	.	2cc
.	.	.	.	1b-y
.	2e	.	.	.
=4	=4	=4	=4	=4
0r	1f	0r	0r	1a
.	[1g	.	.	1dd
=5	=5	=5	=5	=5
0r	2g]	0r	0r	2dd
.	2f	.	.	2dd
.	1e	.	.	1cc
=6	=6	=6	=6	=6
0r	1d	0r	2r	0ff
.	.	.	2d	.
.	1a	.	2d	.
.	.	.	2d	.
=7	=7	=7	=7	=7
1.A	1.a	0r	1c	1ee
.	.	.	1f	1r
2B-y	2a	.	.	.
=8	=8	=8	=8	=8
1c	1g	0r	1e	1r
[1d	2.f	.	2d	2r
.	.	.	[2f	2a
.	4e	.	.	.
=9	=9	=9	=9	=9
2d]	2d	0r	4f]	2b-y
.	.	.	4e	.
2c	1a	.	1e	2cc
1B-y	.	.	.	1dd
.	2g	.	2d	.
=10	=10	=10	=10	=10
1A	[0a	0r	2e	2.cc
.	.	.	1A	.
.	.	.	.	4dd
1r	.	.	.	4ee
.	.	.	.	4cc
.	.	.	2B-y	[2ff
=11	=11	=11	=11	=11
0r	0a]	0r	1c	2ff]
.	.	.	.	2ee
.	.	.	[1d	2.dd
.	.	.	.	4cc
=12	=12	=12	=12	=12
1.D	1d	0r	2d]	2b-y
.	.	.	2c	1a
.	2d	.	1B-y	.
2E	2d	.	.	2g
=13	=13	=13	=13	=13
1F	1c	0r	1A	1a
[1G	[1B-y	.	1d	1r
=14	=14	=14	=14	=14
2G]	2B-]	0r	2d	0r
2F	2A	.	2d	.
1E	1G	.	1c	.
=15	=15	=15	=15	=15
[0D	1d	1.a	[0f	0r
.	2r	.	.	.
.	2d	2a	.	.
=16	=16	=16	=16	=16
1D]	2d	1a	1f]	0r
.	2d	.	.	.
1A	1c	1a	1e	.
=17	=17	=17	=17	=17
1.A	1f	1a	2r	0r
.	.	.	2c	.
.	2e	1a	2c	.
2A	4d	.	2c	.
.	4c	.	.	.
=18	=18	=18	=18	=18
1G	1g	0b-y	1.d	1dd
1B-y	2f	.	.	2dd
.	4e	.	2B-y	2dd
.	4d	.	.	.
=19	=19	=19	=19	=19
2.F	1f	[0a	2c	1.cc
.	.	.	2A	.
4G	.	.	.	.
2A	2e	.	2c	.
[2D	2d	.	2d	[2ff
=20	=20	=20	=20	=20
1D]	4d	0a]	1A	4ff]
.	4e	.	.	4ee
.	4f	.	.	1dd
.	4d	.	.	.
1A	1e	.	1r	.
.	.	.	.	2cc#i
=21	=21	=21	=21	=21
1D	1f	0r	2r	0dd
.	.	.	2d	.
2r	2r	.	1g	.
2G	2d	.	.	.
=22	=22	=22	=22	=22
1c	1e	0r	1.g	0r
2c	2e	.	.	.
2c	2e	.	2e	.
=23	=23	=23	=23	=23
2B-y	2d	0r	2f	0r
2B-y	2d	.	2g	.
[1A	[1c	.	2.a	.
.	.	.	8gL	.
.	.	.	8fJ	.
=24	=24	=24	=24	=24
2A]	1c]	0r	2e	1r
4G	.	.	1f	.
4F	.	.	.	.
1G	2r	.	.	1g
.	2g	.	2e	.
=25	=25	=25	=25	=25
0F	1a	0r	1f	1cc
.	2a	.	1r	2cc
.	2a	.	.	2cc
=26	=26	=26	=26	=26
0r	2g	0r	0r	2b-y
.	2g	.	.	2b-y
.	2f	.	.	2a
.	[2g	.	.	[2b-y
=27	=27	=27	=27	=27
0r	4g]	1.g	0r	4b-]
.	4f	.	.	4a
.	4e	.	.	1dd
.	4d	.	.	.
.	1e	.	.	.
.	.	2g	.	2cc#i
=28	=28	=28	=28	=28
1G	1d	1g	2r	1dd
.	.	.	2d	.
1c	1r	1g	1e	1r
=29	=29	=29	=29	=29
2c	0r	1g	2e	0r
2c	.	.	2e	.
2B-y	.	1g	2d	.
2B-y	.	.	2d	.
=30	=30	=30	=30	=30
2A	2r	0a	1c	0r
2.F	2f	.	.	.
.	2f	.	2r	.
4G	.	.	.	.
4A	2f	.	[2c	.
4B-y	.	.	.	.
=31	=31	=31	=31	=31
2c	2e	[0g	4c]	2r
.	.	.	4d	.
2.C	2c	.	4e	2cc
.	.	.	4f	.
.	1e	.	2g	2cc
4D	.	.	.	.
4E	.	.	[2G	2cc
4F	.	.	.	.
=32	=32	=32	=32	=32
1G	1d	0g]	4G]	2b-y
.	.	.	4A	.
.	.	.	4B-y	2g
.	.	.	4c	.
2r	2.G	.	2.d	2.b-y
2G	.	.	.	.
.	4A	.	4c	4cc
=33	=33	=33	=33	=33
2G	4B-y	0r	1B-y	2dd
.	4c	.	.	.
2G	4d	.	.	2.d
.	4e	.	.	.
2F	4f	.	2A	.
.	4g	.	.	4e
2D	[2a	.	[2d	4f
.	.	.	.	4g
=34	=34	=34	=34	=34
2F	2a]	0r	2d]	2a
2G	2g	.	2d	2b-y
1A	2f	.	2c	2a
.	2e	.	2A	[2cc
=35	=35	=35	=35	=35
1F	1f	0r	1c	4cc]
.	.	.	.	4b-y
.	.	.	.	1a
1G	1d	.	1B-y	.
.	.	.	.	2g
=36	=36	=36	=36	=36
[0D	0r	1.f	1A	0a
.	.	.	2r	.
.	.	2f	2A	.
=37	=37	=37	=37	=37
1D]	1r	1f	2A	2r
.	.	.	2A	2a
1r	2r	1f	2.d	2a
.	2d	.	.	2a
.	.	.	4c	.
=38	=38	=38	=38	=38
2r	2d	1f	2B-y	[0dd
2D	2d	.	4A	.
.	.	.	4G	.
2D	1a	1f	1A	.
2D	.	.	.	.
=39	=39	=39	=39	=39
1G	2b-y	0g	2r	0dd]
.	2g	.	2G	.
1r	1b-y	.	2G	.
.	.	.	2G	.
=40	=40	=40	=40	=40
1r	1a	[0f	0d	2r
.	.	.	.	2a
2r	1r	.	.	2a
2D	.	.	.	2a
=41	=41	=41	=41	=41
2D	1d	0f]	0r	0dd
2D	.	.	.	.
1d	2d	.	.	.
.	2d	.	.	.
=42	=42	=42	=42	=42
1.d	1a	0r	1r	1.ff
.	1f	.	1d	.
2c	.	.	.	2ee
=43	=43	=43	=43	=43
1B-y	1.f	0r	2d	1dd
.	.	.	2d	.
[1A	.	.	1a	2cc
.	4e	.	.	2a
.	4d	.	.	.
=44	=44	=44	=44	=44
1A]	2e	0r	2.a	2cc
.	2A	.	.	2cc
.	.	.	4g	.
[1D	1A	.	2f	2dd
.	.	.	2d	[2ff
=45	=45	=45	=45	=45
1D]	1r	1.a	1f	4ff]
.	.	.	.	4ee
.	.	.	.	2dd
[1A	2r	.	1e	2.cc
.	2A	2a	.	.
.	.	.	.	4dd
=46	=46	=46	=46	=46
0A]	2.c	1a	2r	1.ee
.	.	.	2A	.
.	4d	.	.	.
.	2e	1a	2c	.
.	2e	.	2c	2a
=47	=47	=47	=47	=47
2r	2.f	1a	2d	0r
2D	.	.	2.f	.
.	8eL	.	.	.
.	8dJ	.	.	.
2F	2c	1a	.	.
.	.	.	4e	.
2F	[2d	.	4d	.
.	.	.	4c	.
=48	=48	=48	=48	=48
2G	4d]	0b-y	2.B-y	0r
.	4c	.	.	.
2.B-y	2d	.	.	.
.	.	.	4c	.
.	1B-y	.	2d	.
4A	.	.	.	.
2G	.	.	2e	.
=49	=49	=49	=49	=49
2.F	1c	[0al	1f	2r
.	.	.	.	2a
4G	.	.	.	.
1A	1r	.	1e	2cc
.	.	.	.	2cc
=50	=50	=50	=50	=50
1D	2r	0a_	1r	2dd
.	2A	.	.	1ff
1r	2c	.	[1A	.
.	2c	.	.	2ee
=51	=51	=51	=51	=51
1.D	2d	0a_	0A]	2.dd
.	1f	.	.	.
.	.	.	.	4cc
.	.	.	.	2dd
2C	2e	.	.	2ee
=52	=52	=52	=52	=52
0D	2.d	0a_	[0Al	2.ff
.	4e	.	.	4ee
.	1f	.	.	1dd
=53	=53	=53	=53	=53
0AAl	0el	0a]	0A]	0ccl
=54||	=54||	=54||	=54||	=54||
*M2/1	*M2/1	*M2/1	*M2/1	*M2/1
*met(C)	*met(C)	*met(C)	*met(C)	*met(C)
!!section: Secunda pars: Confiteor Deo
!!!OMD: Secunda pars: Confiteor Deo
1A	1A	1.a	0r	1r
[1A	2.c	.	.	1a
.	.	2a	.	.
.	4d	.	.	.
=55	=55	=55	=55	=55
2A]	1e	1a	1r	2cc
2A	.	.	.	2cc
[1D	1f	1a	1d	[1dd
=56	=56	=56	=56	=56
1D]	2r	1a	1.d	0dd]
.	2d	.	.	.
1r	2f	1a	.	.
.	2f	.	2d	.
=57	=57	=57	=57	=57
0r	1g	0b-y	0G	0dd
.	1g	.	.	.
=58	=58	=58	=58	=58
1A	2e	[0a	1r	1cc
.	2A	.	.	.
[1A	2.c	.	2r	1r
.	.	.	2A	.
.	4d	.	.	.
=59	=59	=59	=59	=59
2A]	1e	0a]	2c	0r
2A	.	.	2c	.
2D	2.f	.	2d	.
2D	.	.	2d	.
.	4g	.	.	.
=60	=60	=60	=60	=60
2.F	0a	0r	2c	2r
.	.	.	1f	2a
4G	.	.	.	.
1A	.	.	.	2cc
.	.	.	2e	2cc
=61	=61	=61	=61	=61
0B-y	1f	0r	2d	2dd
.	.	.	2.f	2d
.	2r	.	.	2.f
.	.	.	4e	.
.	[2f	.	[2d	.
.	.	.	.	4g
=62	=62	=62	=62	=62
1A	2f]	0r	2d]	0a
.	2e	.	2c#i	.
1D	2d	.	[1d	.
.	[2f	.	.	.
=63	=63	=63	=63	=63
2r	2f]	0r	2d]	1b-y
1d	2g	.	2G	.
.	1e	.	1A	1a
2c	.	.	.	.
=64	=64	=64	=64	=64
2B-y	1d	0r	0f	1r
1d	.	.	.	.
.	1b-y	.	.	2r
4c	.	.	.	[2ff
4B-y	.	.	.	.
=65	=65	=65	=65	=65
1c	2a	0r	0r	2ff]
.	2g	.	.	2ee
2.B-y	1b-y	.	.	2dd
.	.	.	.	[2ff
4c	.	.	.	.
=66	=66	=66	=66	=66
1d	0a	0r	2r	4ff]
.	.	.	.	4ee
.	.	.	1f	1dd
1A	.	.	.	.
.	.	.	2e	2cc#i
=67	=67	=67	=67	=67
1B-y	2.f	0r	2d	1dd
.	.	.	2.f	.
.	4g	.	.	.
2A	2a	.	.	2r
.	.	.	4e	.
2G	2d	.	[2g	[2dd
=68	=68	=68	=68	=68
2B-y	2r	0r	4g]	2dd]
.	.	.	4f	.
2c	2g	.	2e	2cc
1G	2g	.	1d	2b-y
.	[2g	.	.	[2dd
=69	=69	=69	=69	=69
0r	2g]	1.g	2B-y	4dd]
.	.	.	.	4cc
.	4f	.	2c	1cc
.	4e	.	.	.
.	1d	.	1G	.
.	.	2g	.	2bnXi
=70	=70	=70	=70	=70
1.C	2.c	1g	2r	0cc
.	.	.	2c	.
.	4d	.	.	.
.	1e	1g	2c	.
2C	.	.	[2c	.
=71	=71	=71	=71	=71
1C	2r	1g	2c]	2r
.	1e	.	4B-y	2cc
.	.	.	4A	.
1C	.	1g	1G	2cc
.	2e	.	.	[2cc
=72	=72	=72	=72	=72
2.F	1f	0a	2F	4cc]
.	.	.	.	4b-y
.	.	.	2A	4a
4F	.	.	.	4g
1F	2.c	.	2A	1f
.	.	.	[2c	.
.	4d	.	.	.
=73	=73	=73	=73	=73
[0C	[0e	[0g	2c]	2.cc
.	.	.	4B-y	.
.	.	.	4A	4cc
.	.	.	1G	1cc
=74	=74	=74	=74	=74
1C]	1e]	0g]	2.c	1cc
.	.	.	4d	.
[1c	2r	.	1e	1r
.	[2c	.	.	.
=75	=75	=75	=75	=75
2c]	2c]	0r	2r	1.g
2B-y	2d	.	1g	.
2c	2e	.	.	.
2A	2c	.	2f	2a
=76	=76	=76	=76	=76
1G	2d	0r	2g	2b-y
.	2g	.	2e	2g
2r	2f	.	1d	2a
[2G	2g	.	.	[2dd
=77	=77	=77	=77	=77
2G]	1e	0r	0r	2dd]
2A	.	.	.	2cc
2B-y	1d	.	.	2dd
2G	.	.	.	2b-y
=78	=78	=78	=78	=78
2A	1a	0r	2r	2a
1d	.	.	1d	1ff
.	2r	.	.	.
2c	[2a	.	2e	2ee
=79	=79	=79	=79	=79
2d	2a]	0r	2f	1dd
2B-y	2g	.	2d	.
2A	2a	.	2e	2cc
[2d	2f	.	[2f	4b-y
.	.	.	.	4a
=80	=80	=80	=80	=80
4d]	2d	2.f	4f]	0dd
4c	.	.	4e	.
4B-y	2.b-y	.	4d	.
4A	.	4f	4c	.
2.B-y	.	2f	2d	.
.	4a	.	.	.
.	2b-y	2f	2B-y	.
4A	.	.	.	.
=81	=81	=81	=81	=81
2F	1a	2f	2c	1cc
2A	.	2f	2F	.
1G	1d	1g	1B-y	2b-y
.	.	.	.	[2dd
=82	=82	=82	=82	=82
0D	2r	0f	1A	2dd]
.	2d	.	.	4cc
.	.	.	.	4b-y
.	2d	.	1r	2a
.	2d	.	.	[2dd
=83	=83	=83	=83	=83
1r	1e	0r	1A	2dd]
.	.	.	.	2cc#i
1D	2d	.	2A	[1dd
.	[2f	.	2A	.
=84	=84	=84	=84	=84
2D	2f]	0r	1.B-y	1dd]
2D	4e	.	.	.
.	4d	.	.	.
1E	1g	.	.	1r
.	.	.	4A	.
.	.	.	4G	.
=85	=85	=85	=85	=85
2D	1f	0r	2.A	2r
1F	.	.	.	2a
.	.	.	4B-y	.
.	2r	.	2c	2a
4E	[2a	.	2d	2a
4D	.	.	.	.
=86	=86	=86	=86	=86
1G	4a]	2.d	2r	1b-y
.	4g	.	.	.
.	2g	.	2G	.
.	.	4d	.	.
1D	2f	2d	2A	2a
.	2d	2d	2A	[2ff
=87	=87	=87	=87	=87
1r	2f	2d	1B-y	4ff]
.	.	.	.	4ee
.	2g	2d	.	1dd
2r	1a	1e	1A	.
2A	.	.	.	2cc#i
=88	=88	=88	=88	=88
2B-y	2f	0d	2r	1dd
2G	2.g	.	2.B-y	.
1B-y	.	.	.	1r
.	4f	.	4G	.
.	4f	.	[2d	.
.	8eL	.	.	.
.	8dJ	.	.	.
=89	=89	=89	=89	=89
1A	1e	1r	2d]	2r
.	.	.	2c#i	2a
[1D	1r	2.f	2.d	2a
.	.	.	.	2a
.	.	4f	4cnX	.
=90	=90	=90	=90	=90
1D]	2r	2f	2B-y	2d
.	2d	2f	2A	2.dd
2r	2d	2f	1r	.
.	.	.	.	4cc
2d	2d	2f	.	4b-y
.	.	.	.	4a
=91	=91	=91	=91	=91
2d	1G	1g	1r	1b-y
2d	.	.	.	.
[1D	1r	[1f	2r	[1a
.	.	.	2d	.
=92	=92	=92	=92	=92
1D]	1r	1f]	2d	1a]
.	.	.	2d	.
2.B-y	1d	1r	2G	1r
.	.	.	[2B-y	.
4A	.	.	.	.
=93	=93	=93	=93	=93
2G	2d	0r	4B-]	0r
.	.	.	4c	.
2F	2d	.	1d	.
1E	1G	.	.	.
.	.	.	2c#i	.
=94	=94	=94	=94	=94
1D	2.f	0r	2.d	2r
.	.	.	.	2a
.	4e	.	4e	.
2r	2.d	.	[1f	2a
2d	.	.	.	2a
.	4c	.	.	.
=95	=95	=95	=95	=95
2d	2B-y	1r	2f]	2d
2d	2G	.	1g	2dd
[1G	[1g	2.d	.	2dd
.	.	.	2G	2dd
.	.	4d	.	.
=96	=96	=96	=96	=96
0G]	0g_	2d	2.B-y	2g
.	.	2d	.	2.b-y
.	.	.	4c	.
.	.	2d	2d	.
.	.	.	.	4cc
.	.	2d	2B-y	[2dd
=97	=97	=97	=97	=97
1r	1g]	1e	1c	2dd]
.	.	.	.	2cc
2.B-y	2r	[1d	2G	1dd
.	[2G	.	[2B-y	.
4A	.	.	.	.
=98	=98	=98	=98	=98
2G	2G]	1d]	2B-]	2r
2F	2A	.	2A	1d
1G	2B-y	1r	2G	.
.	2G	.	2B-y	2e
=99	=99	=99	=99	=99
1D	2.d	0r	1A	2f
.	.	.	.	2d
.	4c	.	.	.
1r	4B-y	.	2r	2.g
.	4A	.	.	.
.	[2d	.	[2G	.
.	.	.	.	4f
=100	=100	=100	=100	=100
0r	2d]	0r	2G]	1e
.	2c	.	2A	.
.	2f	.	2B-y	2d
.	[2g	.	2G	[2b-y
=101	=101	=101	=101	=101
2r	4g]	0r	2.d	4b-]
.	4f	.	.	4a
1D	1f	.	.	1a
.	.	.	4c	.
.	.	.	1B-y	.
2E	4e	.	.	2g
.	4d	.	.	.
=102	=102	=102	=102	=102
2F	2c	0r	2A	1a
2D	2F	.	1d	.
1G	2r	.	.	1b-y
.	2G	.	2e	.
=103	=103	=103	=103	=103
2F	2A	0r	2f	1r
1G	1B-y	.	2d	.
.	.	.	1g	2r
4F	2G	.	.	2g
4E	.	.	.	.
=104	=104	=104	=104	=104
2D	1d	0r	2f	2a
1G	.	.	2g	1b-y
.	1r	.	1e	.
2A	.	.	.	2a
=105	=105	=105	=105	=105
2B-y	2r	1r	1d	2.dd
2G	1d	.	.	.
.	.	.	.	4ee
2d	.	2.a	1r	2ff
2c	2e	.	.	[2ee
.	.	4a	.	.
=106	=106	=106	=106	=106
2d	2f	2a	0r	4ee]
.	.	.	.	4dd
4c	2d	2a	.	2.dd
4B-y	.	.	.	.
2A	2e	2a	.	.
.	.	.	.	4cc
2F	2f	2a	.	2cc
=107	=107	=107	=107	=107
1G	0d	1b-y	1r	2b-y
.	.	.	.	4a
.	.	.	.	4g
1D	.	[1a	2r	1f
.	.	.	[2A	.
=108	=108	=108	=108	=108
2r	1e	1a]	4A]	0r
.	.	.	4B-y	.
2.A	.	.	4c	.
.	.	.	4d	.
.	1A	1r	2e	.
4G	.	.	.	.
4F	.	.	[2f	.
4E	.	.	.	.
=109	=109	=109	=109	=109
4D	1A	0r	4f]	0r
4E	.	.	4e	.
4F	.	.	1d	.
4D	.	.	.	.
1E	1r	.	.	.
.	.	.	2c	.
=110	=110	=110	=110	=110
1D	1r	2.A	1f	2r
.	.	.	.	2.a
.	.	4A	.	.
1r	2r	2A	1e	.
.	.	.	.	4b-y
.	[2a	2A	.	4cc
.	.	.	.	4dd
=111	=111	=111	=111	=111
0r	4a]	2A	0r	2ee
.	4g	.	.	.
.	4f	2A	.	2.ff
.	4e	.	.	.
.	4d	1B-y	.	.
.	4e	.	.	4ee
.	4f	.	.	[2dd
.	4d	.	.	.
=112	=112	=112	=112	=112
1r	1e	0A	2r	2dd]
.	.	.	2.a	2cc#i
2.D	1d	.	.	1dd
.	.	.	4g	.
.	.	.	4f	.
4E	.	.	4e	.
=113	=113	=113	=113	=113
4F	0r	0r	4d	0r
4G	.	.	4e	.
1A	.	.	4f	.
.	.	.	4d	.
.	.	.	2e	.
[2B-y	.	.	[2d	.
=114	=114	=114	=114	=114
4B-]	2r	0r	4d]	1r
4A	.	.	4c	.
1G	2.d	.	1B-y	.
.	.	.	.	2r
.	4e	.	.	.
4F	4f	.	4A	[2dd
4E	4g	.	4G	.
=115	=115	=115	=115	=115
2D	2a	0r	1d	4dd]
.	.	.	.	4cc
2.G	2.b-y	.	.	4b-y
.	.	.	.	4a
.	.	.	2r	4g
4F	4a	.	.	4a
2G	2g	.	[2d	4b-y
.	.	.	.	4g
=116	=116	=116	=116	=116
2D	2f	2.d	4d]	2a
.	.	.	4c	.
1G	2g	.	4B-y	2.b-y
.	.	4d	4A	.
.	4d	2d	2G	.
.	4e	.	.	4a
2F	2f	2d	2A	[2a
=117	=117	=117	=117	=117
1G	2B-y	2d	1B-y	2a]
.	1d	2d	.	2g
1r	.	1e	[1A	1a
.	2c	.	.	.
=118	=118	=118	=118	=118
1D	2.f	0d	1A]	1r
.	4e	.	.	.
2D	4d	.	1r	2r
.	4c	.	.	.
[2G	[2B-y	.	.	2g
=119	=119	=119	=119	=119
2G]	2B-]	0r	1d	2g
2G	4A	.	.	1dd
.	4G	.	.	.
2.G	1d	.	2d	.
.	.	.	[2g	2dd
4G	.	.	.	.
=120	=120	=120	=120	=120
2G	2r	0r	2g]	2.dd
1B-y	2d	.	2f	.
.	.	.	.	4dd
.	2d	.	2.g	2dd
2G	[2g	.	.	2b-y
.	.	.	4f	.
=121	=121	=121	=121	=121
1A	2g]	0r	2e	2cc
.	2f	.	2c	2a
1G	2.g	.	1d	1b-y
.	4f	.	.	.
=122	=122	=122	=122	=122
2C	2e	2.g	2c	2cc
1G	2.d	.	2B-y	2dd
.	.	4g	.	.
.	.	2g	2.d	2.b-y
.	4c	.	.	.
2G	4B-y	2g	.	.
.	4A	.	4c	4cc
=123	=123	=123	=123	=123
1G	2G	2g	4B-y	1dd
.	.	.	4A	.
.	1g	2g	2G	.
1D	.	1a	1d	2r
.	2f	.	.	[2dd
=124	=124	=124	=124	=124
0r	2d	0g	2B-y	2dd]
.	1e	.	1c	2g
.	.	.	.	1cc
.	4d	.	4B-y	.
.	4c	.	4A	.
=125	=125	=125	=125	=125
2r	2.d	0r	1G	2.b-y
1G	.	.	.	.
.	4c	.	.	4a
.	2B-y	.	2r	2g
2D	2A	.	[2d	2f
=126	=126	=126	=126	=126
0G	2G	0r	2d]	0b-y
.	1g	.	2G	.
.	.	.	1B-y	.
.	2d	.	.	.
=127	=127	=127	=127	=127
2F	1f	0r	2c	1a
2D	.	.	1d	.
1A	1e	.	.	2r
.	.	.	2c#i	[2a
=128	=128	=128	=128	=128
2r	2d	0r	1d	4a]
.	.	.	.	4g
1G	1g	.	.	1b-y
.	.	.	2r	.
2D	2f	.	[2d	2a
=129	=129	=129	=129	=129
1.G	2r	2.d	2d]	2.g
.	1g	.	2G	.
.	.	4d	.	8fL
.	.	.	.	8eJ
.	.	2d	2B-y	2d
4F	2d	2d	4A	[2dd
4E	.	.	4G	.
=130	=130	=130	=130	=130
2D	2f	2d	2A	2dd]
2G	1g	2d	2B-y	2g
1C	.	1e	1c	1cc
.	4G	.	.	.
.	4A	.	.	.
=131	=131	=131	=131	=131
0G	4B-y	0d	2d	2b-y
.	4c	.	.	.
.	2d	.	1B-y	4a
.	.	.	.	4g
.	2r	.	.	1b-y
.	2g	.	4A	.
.	.	.	4G	.
=132	=132	=132	=132	=132
2r	2f	0r	1d	2a
2G	2d	.	.	2g
2F	2.f	.	2r	1a
2D	.	.	2d	.
.	4g	.	.	.
=133	=133	=133	=133	=133
2.F	1a	0r	2c	0r
.	.	.	2A	.
4F	.	.	.	.
2E	1r	.	2.c	.
[2A	.	.	.	.
.	.	.	4d	.
=134	=134	=134	=134	=134
4A]	0r	0r	2e	0r
4G	.	.	.	.
4F	.	.	2.f	.
4E	.	.	.	.
2F	.	.	.	.
.	.	.	4e	.
2G	.	.	[2d	.
=135	=135	=135	=135	=135
1E	2r	0r	2d]	1r
.	2g	.	2c#i	.
1D	2f	.	1d	2r
.	2d	.	.	2dd
=136	=136	=136	=136	=136
2r	2.f	2.a	0r	2cc
2d	.	.	.	2a
.	4f	4a	.	.
2c	2e	2a	.	2.cc
2A	[2a	2a	.	.
.	.	.	.	4dd
=137	=137	=137	=137	=137
2c	4a]	2a	1r	2ee
.	4g	.	.	.
1d	4f	2a	.	2.ff
.	4e	.	.	.
.	2f	1b-y	2r	.
.	.	.	.	4dd
2G	2g	.	2d	2dd
=138	=138	=138	=138	=138
2A	2e	[0a	2c	2r
2D	2f	.	2A	2dd
1A	1e	.	2.c	2cc
.	.	.	.	2a
.	.	.	4d	.
=139	=139	=139	=139	=139
2r	2.A	0a]	1.e	2.cc
1A	.	.	.	.
.	4B-y	.	.	4dd
.	2c	.	.	2ee
[2D	[2A	.	2d	[2ff
=140	=140	=140	=140	=140
4D]	2A]	2.A	1f	4ff]
4E	.	.	.	4ee
4F	2.a	.	.	1dd
4G	.	4A	.	.
1A	.	2A	1e	.
.	4g	.	.	.
.	2e	2A	.	2cc#i
=141	=141	=141	=141	=141
[0Dl	[0fl	2A	[0dl	[0ddl
.	.	2A	.	.
.	.	1B-y	.	.
=142	=142	=142	=142	=142
0D]	0f]	0Al	0d]	0dd]
=143||	=143||	=143||	=143||	=143||
*M2/1	*M2/1	*M2/1	*M2/1	*M2/1
*met(C)	*met(C)	*met(C)	*met(C)	*met(C)
!!section: Tertia pars: Ideo deprecor te
!!!OMD: Tertia pars: Ideo deprecor te
0r	1r	0r	0r	1.a
.	[1d	.	.	.
.	.	.	.	2a
=144	=144	=144	=144	=144
0r	2d]	0r	0r	1dd
.	2d	.	.	.
.	[1a	.	.	1ee
=145	=145	=145	=145	=145
1r	0a_	0r	1.A	1cc
[1D	.	.	.	2dd
.	.	.	2A	[2ff
=146	=146	=146	=146	=146
2D]	1a]	0r	1d	4ff]
.	.	.	.	4ee
2D	.	.	.	2dd
[1A	1r	.	1e	1cc
=147	=147	=147	=147	=147
1A]	2r	0r	1c	0r
.	1A	.	.	.
[1D	.	.	2d	.
.	2A	.	[2f	.
=148	=148	=148	=148	=148
2D]	1d	0r	4f]	0a
.	.	.	4e	.
2D	.	.	2d	.
[1A	1e	.	1c	.
=149	=149	=149	=149	=149
1A]	2c	0r	1r	1a
.	2.f	.	.	.
2B-y	.	.	[1d	[1dd
.	4e	.	.	.
2G	[2g	.	.	.
=150	=150	=150	=150	=150
1B-y	4g]	0r	2d]	1dd]
.	4f	.	.	.
.	4f	.	2d	.
.	8eL	.	.	.
.	8dJ	.	.	.
[1A	1c	.	[1a	1ee
=151	=151	=151	=151	=151
1A]	1e	2.A	1a]	1cc
.	.	4A	.	.
[1D	2.d	2A	1f	2dd
.	.	2A	.	[2ff
.	4e	.	.	.
=152	=152	=152	=152	=152
1D]	4f	2A	2d	4ff]
.	4g	.	.	4ee
.	2.a	2A	1f	4dd
.	.	.	.	4cc
1r	.	1B-y	.	1dd
.	4f	.	.	.
.	2g	.	4e	.
.	.	.	4d	.
=153	=153	=153	=153	=153
0r	1a	0A	0e	1cc
.	2r	.	.	2r
.	[2a	.	.	[2cc
=154	=154	=154	=154	=154
0r	2a]	0r	1A	2cc]
.	2a	.	.	2cc
.	1a	.	2r	1cc
.	.	.	[2f	.
=155	=155	=155	=155	=155
1.B-y	1b-y	0r	2f]	1dd
.	.	.	2f	.
.	2b-y	.	1f	2dd
2B-y	2a	.	.	2cc
=156	=156	=156	=156	=156
1B-y	2g	0r	1g	2b-y
.	2f	.	.	2a
1c	[1e	.	2g	1g
.	.	.	2f	.
=157	=157	=157	=157	=157
2c	0e]	0r	2e	1.cc
2B-y	.	.	2d	.
2A	.	.	[1c	.
2G	.	.	.	2b-y
=158	=158	=158	=158	=158
1F	1f	0r	2c]	1a
.	.	.	2.d	.
1G	2d	.	.	2.g
.	.	.	4c	.
.	[2g	.	4B-y	.
.	.	.	4A	4a
=159	=159	=159	=159	=159
2G	2g]	2.d	2G	4b-y
.	.	.	.	4cc
2D	2f	.	2A	2.dd
.	.	4d	.	.
[1G	1g	2d	2.B-y	.
.	.	.	.	4cc
.	.	2d	.	4b-y
.	.	.	4c	4a
=160	=160	=160	=160	=160
1G]	2r	2d	2d	1b-y
.	2g	2d	2G	.
1C	2g	1e	2.c	2cc
.	2g	.	.	2g
.	.	.	4B-y	.
=161	=161	=161	=161	=161
1D	1f	0d	1A	2r
.	.	.	.	2dd
1r	1g	.	1G	2dd
.	.	.	.	2dd
=162	=162	=162	=162	=162
1r	2c	0r	2A	1cc
.	2.f	.	2F	.
2r	.	.	2.B-y	1dd
.	4e	.	.	.
2G	[2d	.	.	.
.	.	.	4c	.
=163	=163	=163	=163	=163
2G	2d]	0r	1d	2g
2G	4c	.	.	1b-y
.	4B-y	.	.	.
1F	1f	.	2r	.
.	.	.	2d	2a
=164	=164	=164	=164	=164
1G	2d	0r	2d	2.g
.	2g	.	2d	.
.	.	.	.	4f
1C	2g	.	1c	1e
.	2g	.	.	.
=165	=165	=165	=165	=165
0r	1f	0r	1d	2d
.	.	.	.	2dd
.	1g	.	1G	2dd
.	.	.	.	2dd
=166	=166	=166	=166	=166
1r	1c	2.g	0r	1cc
.	.	4g	.	.
1G	2r	2g	.	1dd
.	[2B-y	2g	.	.
=167	=167	=167	=167	=167
2G	4B-]	2g	1r	2g
.	4c	.	.	.
2G	4d	2g	.	2.dd
.	4e	.	.	.
1F	4f	1a	2r	.
.	4g	.	.	4cc
.	[2f	.	2d	4b-y
.	.	.	.	4a
=168	=168	=168	=168	=168
1G	2f]	0g	2d	1b-y
.	4e	.	2d	.
.	4d	.	.	.
1C	2.e	.	1c	1cc
.	4f	.	.	.
=169	=169	=169	=169	=169
1G	0g	1r	1d	2b-y
.	.	.	.	4a
.	.	.	.	4g
2G	.	2.d	2G	1b-y
2G	.	.	[2d	.
.	.	4d	.	.
=170	=170	=170	=170	=170
1F	0r	2d	4d]	1a
.	.	.	4c	.
.	.	2d	4B-y	.
.	.	.	4A	.
1G	.	2d	1B-y	[1g
.	.	2d	.	.
=171	=171	=171	=171	=171
1C	2r	1e	1c	0g]
.	2G	.	.	.
[1G	2B-y	[1d	2r	.
.	2B-y	.	2G	.
=172	=172	=172	=172	=172
1G]	2G	1d]	1B-y	2r
.	2.B-y	.	.	2d
1F	.	1r	[1c	1f
.	4A	.	.	.
.	[2A	.	.	.
=173	=173	=173	=173	=173
1E	2A]	0r	1c]	1g
.	2G	.	.	.
[1D	1A	.	2d	2.f
.	.	.	2d	.
.	.	.	.	4g
=174	=174	=174	=174	=174
0D_	2r	0r	2f	0a
.	2d	.	2f	.
.	2f	.	2d	.
.	2f	.	[2f	.
=175	=175	=175	=175	=175
1D]	2d	2.a	4f]	1r
.	.	.	4e	.
.	1f	.	1d	.
.	.	4a	.	.
1r	.	2a	.	2r
.	4e	2a	4c	2a
.	4d	.	4B-y	.
=176	=176	=176	=176	=176
0r	2e	2a	1A	1cc
.	2c	2a	.	.
.	1g	1b-y	1G	[1dd
=177	=177	=177	=177	=177
1D	1f	0a	1.A	1dd]
1F	1r	.	.	2cc
.	.	.	[2d	4b-y
.	.	.	.	4a
=178	=178	=178	=178	=178
1G	2r	0r	2d]	1b-y
.	2d	.	4c	.
.	.	.	4B-y	.
1F	2f	.	[1c	2r
.	2f	.	.	2a
=179	=179	=179	=179	=179
2r	2e	2.A	1c]	2cc
2.F	2.a	.	.	2cc
.	.	4A	.	.
.	.	2A	2r	2a
4E	4g	.	.	.
4F	2f	2A	2A	[2cc
4G	.	.	.	.
=180	=180	=180	=180	=180
2A	2e	2A	2c	4cc]
.	.	.	.	4b-y
2D	2f	2A	1d	1a
1G	1d	1B-y	.	.
.	.	.	4c	2g
.	.	.	4B-y	.
=181	=181	=181	=181	=181
2r	2e	[0A	2c	0a
2D	2.f	.	2d	.
2F	.	.	2A	.
.	4e	.	.	.
2F	2c	.	[2f	.
=182	=182	=182	=182	=182
2D	2d	0A]	4f]	2r
.	.	.	4e	.
2.F	2A	.	2c	2.a
.	[1f	.	1d	.
4E	.	.	.	4g
[2D	.	.	.	4f
.	.	.	.	4e
=183	=183	=183	=183	=183
2D]	2f]	0r	[0Al	2d
2C	2e	.	.	2e
1D	1d	.	.	2.f
.	.	.	.	4g
=184	=184	=184	=184	=184
[0AAl	[0cl	2.e	0A_	[0al
.	.	4e	.	.
.	.	2e	.	.
.	.	2e	.	.
=185	=185	=185	=185	=185
0AA_	0c_	2e	0A_	0a_
.	.	2e	.	.
.	.	1f	.	.
=186	=186	=186	=186	=186
0AA]	0c]	0el	0A]	0a]
==	==	==	==	==
*-	*-	*-	*-	*-
!!!system-decoration: s1,s2,s3,s4,s5
!!!RDF**kern: i = editorial accidental
!!!RDF**kern: l = terminal long
!!!ENC: Max Blistain
!!!END: 2025/12/17
!!!EED: Benjamin Ory
!!!EEV: 2026/01/30
!!!YEC: Copyright 2026 Benjamin Ory, All Rights Reserved
!!!ONB: Translated from MusicXML on 2026/01/30
